svg/color/shib.svg

<svg width="64" height="65" viewBox="0 0 64 65" fill="none" xmlns="http://www.w3.org/2000/svg">
<rect y="0.303711" width="64" height="64" rx="32" fill="#F00500"/>
<rect x="0.5" y="0.803711" width="63" height="63" rx="31.5" stroke="#070B14" stroke-opacity="0.15"/>
<path d="M43.3184 33.229C43.2998 33.3383 42.9967 33.662 42.6918 33.9C41.7995 34.5846 40.2025 35.2224 38.5795 35.5287C37.6555 35.7042 36.7316 35.7315 36.4527 35.5891C36.2724 35.4936 36.2464 35.4194 36.3114 35.1756C36.4471 34.6685 36.8877 34.1107 37.5719 33.5879C37.9214 33.3246 39.338 32.4215 39.9962 32.0412C41.0819 31.417 41.9612 31.0464 42.5561 30.9567C42.7439 30.9294 42.9707 30.9216 43.0395 30.9567C43.1585 31.0035 43.2868 31.3644 43.337 31.7974C43.3648 32.0275 43.3518 33.0457 43.3184 33.229ZM28.0868 35.474C28.0496 35.556 27.8544 35.6437 27.635 35.6769C27.4138 35.712 26.7426 35.6905 26.3615 35.6437C24.9895 35.4526 23.5357 35.0118 22.476 34.4695C21.8811 34.1653 21.4535 33.859 21.1375 33.5275L20.9553 33.3305L20.9367 33.073C20.9032 32.6244 20.9106 31.9203 20.9627 31.6687C20.9963 31.459 21.0643 31.2571 21.1635 31.0718C21.2137 31.0035 21.2137 31.0035 21.4479 31.0035C21.7324 31.0035 21.9703 31.0503 22.3589 31.1791C23.1546 31.4385 24.337 32.0626 25.7796 32.9716C26.9694 33.7167 27.4156 34.0833 27.7577 34.5846C27.9901 34.8967 28.1444 35.3375 28.0868 35.474ZM37.2428 44.9163C37.2428 44.9358 37.1647 45.2616 37.0681 45.6478C37.0058 45.8846 36.9475 46.1226 36.8933 46.3616C36.8208 46.3675 36.7576 46.3753 36.6851 46.3675H36.4806L36.1943 47.0736C36.04 47.4598 35.8968 47.8187 35.8783 47.8733L35.8392 47.9688L35.7035 47.7367L35.5678 47.5066V45.6283L35.5157 45.6419C35.4042 45.6692 34.6234 45.7785 34.2813 45.8116C32.8668 45.9596 31.4404 45.9275 30.0332 45.716C29.8917 45.6904 29.749 45.6721 29.6056 45.6614C29.6001 45.6692 29.6056 46.1022 29.6187 46.6386L29.6373 47.6022L29.5294 47.7777C29.4699 47.8733 29.4123 47.9532 29.4123 47.961C29.3937 47.9806 29.3286 47.8733 29.1799 47.5612C29.02 47.2338 28.8982 46.8874 28.8174 46.5294L28.7728 46.3343L28.572 46.346L28.3712 46.3675L28.3192 46.1159C28.2908 45.9633 28.2672 45.8098 28.2485 45.6556L28.2299 45.4391L28.0626 45.283L27.8488 45.0919C27.8153 45.0646 27.8023 45.0178 27.8023 44.9768V44.8949L28.611 44.9027L29.4197 44.9085L29.4439 44.9963L29.4699 45.086L29.7488 45.0997L30.8345 45.1328L31.6432 45.1523L31.8496 44.8149L32.0634 44.4755H32.3348L32.3292 43.7695L32.3218 43.0634L31.9667 42.9015C30.8215 42.3729 30.1504 41.7702 29.8975 41.0368C29.8455 40.8866 29.8455 40.832 29.8325 40.1552C29.8269 39.4823 29.8269 39.4218 29.8715 39.2716C29.9152 39.1055 29.9996 38.9543 30.1164 38.8332C30.2332 38.712 30.3782 38.6251 30.5371 38.5812C30.6486 38.5461 30.9386 38.5461 32.4649 38.5461L34.2608 38.5539L34.4616 38.6553C34.6551 38.7387 34.8225 38.8772 34.945 39.0551C35.1011 39.2716 35.1476 39.4413 35.1476 39.8548C35.1476 40.4458 35.1086 40.9549 35.051 41.1578C34.9653 41.4368 34.8386 41.7 34.6754 41.9379C34.3519 42.3729 33.7645 42.8059 33.2253 43.0029L33.071 43.0634L33.0784 43.7773L33.084 44.4892L33.2272 44.5028L33.3685 44.5165L33.5637 44.8208L33.7496 45.127H34.6178C35.0956 45.127 35.5157 45.1328 35.5548 45.1387C35.6198 45.1543 35.6328 45.1465 35.6961 45.0314L35.7741 44.9085H36.5178C37.0755 44.8812 37.2428 44.8949 37.2428 44.9163Z" fill="black"/>
<path d="M33.8275 46.8629C33.7048 46.937 33.6212 46.9701 33.6026 46.9584C33.584 46.9506 33.491 46.8687 33.3944 46.7946L33.2196 46.6464L33.0393 46.8492C32.6451 47.2978 32.6303 47.3173 32.515 47.3232C32.3347 47.3427 32.2956 47.3095 32.0763 46.9643C31.9591 46.7887 31.8699 46.6386 31.8699 46.6386C31.8699 46.6386 31.7844 46.6249 31.6877 46.6191L31.5074 46.5996L31.4237 46.7809L31.3382 46.9643L31.1895 46.9175C31.0729 46.8771 30.9587 46.8296 30.8474 46.7751L30.6541 46.6737V46.2855L32.3737 46.2933L34.0934 46.2992L34.099 46.4825C34.1064 46.699 34.112 46.6932 33.8275 46.8629Z" fill="black"/>
<path d="M49.9905 38.5884C49.9849 38.5591 49.9849 38.5104 49.9793 38.4382C48.1739 38.2588 46.3524 38.456 44.6198 39.0184C42.8873 39.5808 41.2779 40.4972 39.8844 41.715C39.8844 41.715 38.5608 35.3369 32.3551 35.3369C26.1457 35.3369 23.846 41.715 23.846 41.715C20.3676 37.7867 15.7124 38.0715 14.0299 38.329L14.0244 38.4577C13.9723 39.4407 13.9983 39.9088 14.1545 40.5252C14.6379 42.4601 16.1326 44.59 18.4732 46.679C22.3067 50.0982 27.5047 52.5655 31.4423 52.8523C35.5472 53.1448 41.606 50.6268 45.6402 46.9501C46.2723 46.361 46.8672 45.7369 47.4249 45.0718C47.8246 44.5842 48.4196 43.7415 48.3749 43.7415C48.3619 43.7415 48.3749 43.7279 48.401 43.7142C48.4196 43.7006 48.4382 43.6811 48.427 43.6674C48.4196 43.6596 48.4326 43.6401 48.453 43.6343C48.4716 43.6265 48.4846 43.6148 48.4791 43.5992C48.4716 43.5855 48.4791 43.5719 48.5051 43.566C48.5237 43.5582 48.5311 43.5387 48.5237 43.525C48.5162 43.5114 48.5237 43.4977 48.5367 43.4977C48.5497 43.4977 48.5627 43.4782 48.5627 43.4646C48.5627 43.4509 48.5757 43.4295 48.5887 43.4295C48.6018 43.4295 48.6148 43.4158 48.6148 43.4022C48.6362 43.3466 48.6643 43.2942 48.6984 43.2461C48.7951 43.0901 49.1818 42.3645 49.2357 42.2436C49.6038 41.3678 49.8362 40.5876 49.9459 39.8074C49.9849 39.4349 50.0165 38.7503 49.9905 38.5864V38.5884ZM33.8275 46.8623C33.7048 46.9364 33.6211 46.9696 33.6025 46.9579C33.5839 46.9501 33.491 46.8682 33.3943 46.7941L33.2196 46.6458L33.0392 46.8487C32.6451 47.2973 32.6302 47.3168 32.515 47.3226C32.3346 47.3421 32.2956 47.309 32.0762 46.9637C31.9591 46.7882 31.8699 46.638 31.8699 46.638C31.8699 46.638 31.7843 46.6244 31.6877 46.6185L31.5073 46.599L31.4237 46.7804L31.3382 46.9637L31.1894 46.9169C31.0728 46.8766 30.9586 46.829 30.8474 46.7745L30.654 46.6731V46.285L32.3737 46.2928L34.0933 46.2986L34.0989 46.482C34.1064 46.6985 34.1119 46.6926 33.8275 46.8623ZM37.0623 45.6413C37.0001 45.8777 36.9412 46.115 36.8857 46.3532C36.8151 46.3591 36.75 46.3669 36.6793 46.3591H36.473L36.1941 47.073C36.0398 47.4592 35.8967 47.8181 35.8781 47.8727L35.839 47.9682L35.7033 47.7361L35.5676 47.506V45.6277L35.5156 45.6413C35.404 45.6686 34.6232 45.7779 34.2811 45.811C32.8666 45.959 31.4402 45.9269 30.0331 45.7154C29.8915 45.6899 29.7488 45.6716 29.6055 45.6608C29.5999 45.6686 29.6055 46.1016 29.6185 46.638L29.6371 47.6016L29.5293 47.7771C29.4698 47.8727 29.4121 47.9526 29.4121 47.9604C29.3935 47.9799 29.3285 47.8727 29.1797 47.5606C29.0199 47.2332 28.8981 46.8867 28.8172 46.5288L28.7726 46.3337L28.5718 46.3474L28.371 46.3669L28.319 46.1153C28.2906 45.9627 28.2671 45.8092 28.2483 45.655L28.2297 45.4385L28.0624 45.2824C27.9926 45.217 27.9213 45.1533 27.8486 45.0913C27.8152 45.064 27.8021 45.0172 27.8021 44.9762V44.8943L28.6109 44.9021L29.4196 44.9079L29.4437 44.9957L29.4698 45.0854L29.7486 45.0991L30.8343 45.1322L31.643 45.1517L31.8494 44.8143L32.0632 44.4749H32.3346L32.3291 43.7689L32.3216 43.0628L31.9665 42.9009C30.8213 42.3723 30.1502 41.7696 29.8974 41.0362C29.8453 40.886 29.8453 40.8314 29.8323 40.1546C29.8267 39.4817 29.8267 39.4212 29.8713 39.271C29.915 39.1049 29.9995 38.9537 30.1162 38.8326C30.233 38.7114 30.3781 38.6245 30.5369 38.5806C30.6484 38.5455 30.9384 38.5455 32.4648 38.5455L34.2607 38.5533L34.4614 38.6547C34.6549 38.7382 34.8223 38.8767 34.9448 39.0545C35.101 39.271 35.1474 39.4407 35.1474 39.8542C35.1474 40.4452 35.1084 40.9543 35.0508 41.1572C34.9651 41.4362 34.8384 41.6994 34.6752 41.9373C34.3518 42.3723 33.7643 42.8053 33.2251 43.0023L33.0708 43.0628L33.0783 43.7767L33.0839 44.4886L33.227 44.5022L33.3683 44.5159L33.5635 44.8202L33.7494 45.1264H34.6176C35.0954 45.1264 35.5156 45.1322 35.5546 45.1381C35.6197 45.1537 35.6327 45.1459 35.6959 45.0308L35.774 44.9079H36.5176C37.0939 44.9079 37.2612 44.9157 37.2612 44.9352C37.2427 44.9294 37.1571 45.261 37.0605 45.6413H37.0623Z" fill="white"/>
<path d="M49.9378 37.8967C49.9247 37.5816 49.9049 37.2668 49.8783 36.9527C49.5994 33.8729 48.8502 31.3567 47.428 28.6904C47.3748 28.599 47.3276 28.5038 47.2867 28.4056C47.2737 28.3861 47.2681 28.3666 47.2607 28.353C47.4615 27.721 48.2832 25.082 48.9339 22.0646C49.8207 17.9686 50.384 13.1782 48.6643 11.7407C48.6643 11.7407 45.6897 11.5106 41.7075 15.6066C40.6274 16.7378 39.6384 17.9667 38.759 19.2754L38.4802 19.1818C36.88 18.6321 35.2206 18.2946 33.5405 18.1773C33.0367 18.1383 31.1553 18.1383 30.5418 18.1773C28.6864 18.306 27.2623 18.5986 25.6468 19.1877C25.5874 19.2123 25.5272 19.2351 25.4665 19.2559C24.5551 17.9501 23.5361 16.7309 22.4213 15.6124C18.2755 11.4969 15.1912 11.7349 15.1912 11.7349C13.3693 13.2192 13.9902 18.2261 14.9309 22.4586C15.3981 24.5354 15.9552 26.5888 16.6004 28.6124C16.5794 28.6631 16.5559 28.7126 16.5298 28.7606C15.0239 31.9633 14.2078 35.049 14.0144 38.3317C15.7006 38.0742 20.3502 37.7816 23.8342 41.7157C23.8342 41.7157 26.1357 35.3396 32.3433 35.3396C38.5489 35.3396 39.8745 41.7177 39.8745 41.7177C41.2686 40.5018 42.8778 39.5864 44.6098 39.0241C46.3417 38.4618 48.1624 38.2636 49.9675 38.4409L49.9359 37.8967H49.9378ZM17.8237 26.0534C17.8237 26.0534 15.4069 19.7104 16.0259 16.0864C16.1301 15.4778 16.3234 14.9415 16.6283 14.5358C16.6283 14.5358 19.3686 14.8205 23.7914 19.9757C23.7914 19.9757 22.9511 20.4028 21.8263 21.3117C21.8263 21.3117 21.8189 21.3176 21.8133 21.3176C20.2018 22.6081 18.8465 24.2169 17.8237 26.0534ZM28.0859 35.4742C28.045 35.5561 27.8517 35.6439 27.6323 35.677C27.4111 35.7122 26.7399 35.6907 26.3588 35.6439C24.9868 35.4527 23.533 35.0119 22.4733 34.4697C21.8784 34.1654 21.4508 33.8592 21.1348 33.5276L20.9526 33.3306L20.934 33.0732C20.9005 32.6245 20.9079 31.9204 20.96 31.6688C20.9936 31.4592 21.0615 31.2573 21.1608 31.072C21.211 31.0037 21.211 31.0037 21.4452 31.0037C21.7297 31.0037 21.9676 31.0505 22.3562 31.1792C23.1519 31.4386 24.3343 32.0628 25.7769 32.9717C26.9667 33.7168 27.4129 34.0835 27.755 34.5848C27.9874 34.8969 28.1417 35.3377 28.0841 35.4742H28.0859ZM43.3157 33.2292C43.2971 33.3384 42.994 33.6622 42.6892 33.9002C41.7968 34.5848 40.1998 35.2226 38.5768 35.5288C37.6529 35.7044 36.7289 35.7317 36.45 35.5893C36.2697 35.4937 36.2437 35.4196 36.3087 35.1758C36.4444 34.6686 36.885 34.1108 37.5692 33.5881C37.9187 33.3228 39.3353 32.4217 39.9935 32.0413C41.0792 31.4172 41.9585 31.0466 42.5534 30.9569C42.7412 30.9296 42.968 30.9218 43.0387 30.9569C43.1558 31.0037 43.2841 31.3645 43.3361 31.7975C43.3621 32.0277 43.3491 33.0458 43.3175 33.2292H43.3157ZM42.243 21.3117L42.23 21.3039C41.6384 20.7964 41.0022 20.349 40.33 19.9678C44.604 14.8127 47.2458 14.528 47.2458 14.528C47.5377 14.9415 47.7255 15.47 47.8296 16.0805C48.43 19.7026 46.0969 26.0514 46.0969 26.0514C45.1175 24.2242 43.8085 22.6144 42.243 21.3117Z" fill="#FFA409"/>
<path d="M47.8397 16.0808C47.334 16.0145 44.9488 16.0008 42.2457 21.312L42.2326 21.3042C41.6411 20.7967 41.0049 20.3493 40.3326 19.9681C44.6067 14.813 47.2485 14.5282 47.2485 14.5282C47.5459 14.9417 47.7356 15.4703 47.8378 16.0808H47.8397Z" fill="#FF9300"/>
<path d="M46.1044 26.0528C45.1248 24.2233 43.8137 22.6126 42.2449 21.3111C44.948 16 47.3276 16.0136 47.837 16.0799C48.4394 19.7098 46.1044 26.0528 46.1044 26.0528ZM47.9337 16.0995L47.837 16.0799L47.9337 16.0995Z" fill="#FF8300"/>
<path d="M23.7944 19.9681C23.7944 19.9681 22.954 20.3972 21.8293 21.3042C21.8293 21.3042 21.8218 21.312 21.8163 21.312C19.0165 15.993 16.5513 16.0145 16.0233 16.0808C16.1256 15.4703 16.3208 14.9358 16.6238 14.5282C16.6312 14.5282 19.3716 14.813 23.7944 19.97V19.9681Z" fill="#FF9300"/>
<path d="M21.8218 21.3111C20.207 22.6013 18.8496 24.2117 17.8266 26.0508C17.8266 26.0508 15.4097 19.7098 16.0288 16.0799C16.5531 16.0136 19.022 16 21.8218 21.3111Z" fill="#FF8300"/>
<path d="M16.028 16.0803L15.926 16.0985L16.0262 16.0803H16.028Z" fill="#FF8300"/>
<path d="M39.5628 29.5734C39.5628 29.5734 37.4936 29.708 37.752 28.013C38.0123 26.3161 39.6279 26.1132 40.0796 26.1795C40.5332 26.2478 42.3421 26.9266 42.0205 28.3524C41.697 29.7762 41.2434 29.5032 40.985 29.5734C40.7266 29.6397 39.5628 29.5734 39.5628 29.5734ZM24.3033 29.5734C24.3033 29.5734 22.236 29.708 22.4944 28.013C22.7547 26.3161 24.3684 26.1132 24.822 26.1795C25.2738 26.2478 27.0845 26.9266 26.761 28.3524C26.4376 29.7762 25.9858 29.5032 25.7274 29.5734C25.4671 29.6397 24.3052 29.5734 24.3052 29.5734H24.3033Z" fill="white"/>
</svg>

<svg xmlns="http://www.w3.org/2000/svg" width="64" height="65" fill="none" viewBox="0 0 64 65"><rect width="64" height="64" y=".304" fill="#F00500" rx="32"/><rect width="63" height="63" x=".5" y=".804" stroke="#070B14" stroke-opacity=".15" rx="31.5"/><path fill="#000" d="M43.318 33.229c-.018.11-.321.433-.626.671-.892.685-2.49 1.322-4.112 1.629-.924.175-1.848.202-2.127.06-.18-.095-.207-.17-.142-.413.136-.508.577-1.065 1.26-1.588.35-.263 1.767-1.166 2.425-1.547 1.086-.624 1.965-.995 2.56-1.084.188-.028.415-.035.483 0 .12.046.248.407.298.84.028.23.015 1.249-.019 1.432m-15.231 2.245c-.037.082-.233.17-.452.203-.221.035-.892.014-1.274-.033-1.372-.191-2.825-.632-3.885-1.175-.595-.304-1.023-.61-1.338-.941l-.183-.197-.018-.258c-.034-.449-.026-1.153.026-1.404.033-.21.101-.412.2-.597.05-.069.05-.069.285-.069.284 0 .522.047.91.176.797.26 1.979.884 3.422 1.793 1.19.745 1.636 1.111 1.978 1.613.232.312.386.752.329.889m9.156 9.442c0 .02-.078.346-.175.732q-.093.356-.175.714c-.072.005-.135.013-.208.005h-.204l-.287.707c-.154.386-.297.745-.316.8l-.039.095-.136-.232-.135-.23v-1.879l-.052.014c-.112.027-.893.136-1.235.17-1.414.148-2.84.116-4.248-.096a4 4 0 0 0-.427-.055c-.006.008 0 .441.013.978l.018.963-.108.176c-.06.095-.117.175-.117.183-.018.02-.083-.088-.232-.4a4.7 4.7 0 0 1-.363-1.032l-.044-.195-.201.012-.2.022-.053-.252a7 7 0 0 1-.07-.46l-.02-.217-.166-.156-.214-.191c-.034-.027-.047-.074-.047-.115v-.082l.809.008.809.005.024.088.026.09.279.014 1.085.033.81.02.206-.338.213-.34h.272l-.006-.706-.007-.706-.355-.162c-1.145-.528-1.817-1.13-2.07-1.864-.051-.15-.051-.205-.064-.882-.006-.673-.006-.733.039-.883a1 1 0 0 1 .244-.439.93.93 0 0 1 .421-.252c.112-.035.402-.035 1.928-.035l1.796.008.2.101c.194.084.361.222.484.4.156.217.203.386.203.8 0 .59-.04 1.1-.097 1.303a2.9 2.9 0 0 1-.376.78c-.323.435-.91.868-1.45 1.065l-.154.06.007.714.006.712.143.014.142.014.195.304.186.306h.868c.478 0 .898.006.937.012.065.015.078.008.141-.108l.078-.123h.744c.557-.027.725-.013.725.008"/><path fill="#000" d="M33.828 46.863c-.123.074-.207.107-.225.095-.019-.007-.112-.09-.209-.163l-.174-.149-.18.203c-.395.449-.41.468-.525.474-.18.02-.22-.014-.439-.359-.117-.175-.206-.325-.206-.325s-.086-.014-.182-.02l-.18-.02-.084.182-.086.183-.149-.047a3 3 0 0 1-.342-.142l-.193-.101v-.389l1.72.008 1.72.006.005.184c.007.216.013.21-.271.38"/><path fill="#fff" d="M49.99 38.588c-.005-.029-.005-.078-.01-.15a13.1 13.1 0 0 0-5.36.58 13.6 13.6 0 0 0-4.736 2.697s-1.323-6.378-7.529-6.378c-6.21 0-8.509 6.378-8.509 6.378-3.478-3.928-8.134-3.644-9.816-3.386l-.006.129c-.052.983-.026 1.45.13 2.067.484 1.935 1.979 4.065 4.32 6.154 3.833 3.42 9.03 5.886 12.968 6.173 4.105.293 10.164-2.225 14.198-5.902a21 21 0 0 0 1.785-1.878c.4-.488.995-1.33.95-1.33-.013 0 0-.014.026-.028.019-.013.037-.033.026-.047-.007-.007.006-.027.026-.033.019-.008.032-.02.026-.035-.007-.013 0-.027.026-.033.019-.008.026-.027.019-.041-.008-.014 0-.027.013-.027s.026-.02.026-.033.013-.036.026-.036.026-.013.026-.027a.7.7 0 0 1 .083-.156c.097-.156.484-.882.538-1.002.368-.876.6-1.656.71-2.437.039-.372.07-1.057.044-1.22zm-16.163 8.274c-.122.074-.206.108-.224.096-.02-.008-.112-.09-.209-.164l-.174-.148-.18.203c-.395.448-.41.468-.525.474-.18.02-.22-.014-.439-.36-.117-.175-.206-.325-.206-.325s-.086-.014-.182-.02l-.18-.019-.084.181-.086.184-.149-.047a3 3 0 0 1-.342-.142l-.193-.102v-.388l1.72.008 1.72.006.005.183c.007.217.013.21-.271.38m3.235-1.22q-.092.354-.176.711c-.07.006-.136.014-.207.006h-.206l-.279.714c-.154.386-.297.745-.316.8l-.039.095-.136-.232-.135-.23v-1.878l-.052.013a19 19 0 0 1-1.235.17c-1.414.148-2.84.116-4.248-.096a4 4 0 0 0-.428-.054c-.005.008 0 .44.014.977l.018.964-.108.175c-.06.096-.117.176-.117.183-.018.02-.084-.087-.232-.4a4.7 4.7 0 0 1-.363-1.031l-.044-.195-.201.013-.201.02-.052-.252a7 7 0 0 1-.07-.46l-.02-.217-.167-.156a6 6 0 0 0-.213-.19c-.034-.028-.047-.075-.047-.116v-.082l.809.008.809.006.024.088.026.09.279.013 1.085.033.809.02.206-.338.214-.34h.272l-.006-.705-.007-.706-.356-.162c-1.145-.529-1.816-1.131-2.069-1.865-.052-.15-.052-.205-.065-.881-.005-.673-.005-.734.04-.884a1 1 0 0 1 .244-.438.93.93 0 0 1 .42-.252c.112-.036.402-.036 1.929-.036l1.796.008.2.102c.194.083.361.222.484.4.156.216.202.386.202.8 0 .59-.039 1.1-.096 1.302a2.9 2.9 0 0 1-.376.78c-.323.435-.91.868-1.45 1.065l-.154.06.007.715.006.712.143.013.141.014.195.304.186.306h.869c.477 0 .898.006.937.012.065.016.078.008.14-.107l.079-.123h.744c.576 0 .743.008.743.027-.018-.006-.104.326-.2.706z"/><path fill="#FFA409" d="M49.938 37.897q-.02-.473-.06-.944c-.279-3.08-1.028-5.596-2.45-8.263a2.4 2.4 0 0 1-.141-.284c-.013-.02-.019-.04-.026-.053a73 73 0 0 0 1.673-6.288c.887-4.096 1.45-8.887-.27-10.324 0 0-2.974-.23-6.956 3.866a27.6 27.6 0 0 0-2.949 3.668l-.279-.093c-1.6-.55-3.26-.887-4.94-1.005-.503-.039-2.385-.039-2.998 0-1.856.129-3.28.422-4.895 1.01q-.09.038-.18.069a27.3 27.3 0 0 0-3.046-3.644c-4.145-4.115-7.23-3.877-7.23-3.877-1.822 1.484-1.2 6.491-.26 10.724a73 73 0 0 0 1.67 6.153q-.032.076-.071.149c-1.506 3.202-2.322 6.288-2.516 9.57 1.687-.257 6.336-.55 9.82 3.385 0 0 2.302-6.376 8.51-6.376 6.205 0 7.53 6.378 7.53 6.378a13.6 13.6 0 0 1 4.736-2.694 13.2 13.2 0 0 1 5.358-.583l-.032-.544zM17.824 26.053s-2.417-6.343-1.798-9.967c.104-.608.297-1.144.602-1.55 0 0 2.74.284 7.163 5.44 0 0-.84.427-1.965 1.336 0 0-.007.006-.013.006a16.1 16.1 0 0 0-3.99 4.735m10.262 9.421c-.041.082-.234.17-.454.203-.22.035-.892.014-1.273-.033-1.372-.191-2.826-.632-3.886-1.174-.595-.305-1.022-.61-1.338-.942l-.182-.197-.019-.258c-.034-.449-.026-1.153.026-1.404a1.9 1.9 0 0 1 .2-.597c.051-.068.051-.068.285-.068.285 0 .523.046.911.175.796.26 1.978.884 3.42 1.793 1.19.745 1.637 1.111 1.979 1.613.232.312.387.753.33.89m15.23-2.245c-.019.11-.322.433-.627.671-.892.685-2.49 1.323-4.112 1.629-.924.175-1.848.203-2.127.06-.18-.095-.206-.17-.141-.413.135-.507.576-1.065 1.26-1.588.35-.265 1.766-1.166 2.424-1.547 1.086-.624 1.965-.994 2.56-1.084.188-.027.415-.035.486 0 .117.047.245.407.297.84.026.23.013 1.249-.018 1.432zm-1.073-11.917-.013-.008a12 12 0 0 0-1.9-1.336c4.274-5.155 6.916-5.44 6.916-5.44.292.413.48.942.584 1.553.6 3.622-1.733 9.97-1.733 9.97a16 16 0 0 0-3.854-4.74"/><path fill="#FF9300" d="M47.84 16.08c-.506-.065-2.891-.08-5.594 5.232l-.013-.008a12 12 0 0 0-1.9-1.336c4.274-5.155 6.916-5.44 6.916-5.44.297.414.487.942.589 1.553z"/><path fill="#FF8300" d="M46.104 26.053c-.98-1.83-2.29-3.44-3.86-4.742 2.704-5.311 5.084-5.297 5.593-5.231.602 3.63-1.733 9.973-1.733 9.973m1.83-9.954-.097-.02z"/><path fill="#FF9300" d="M23.794 19.968s-.84.43-1.965 1.336c0 0-.007.008-.013.008-2.8-5.319-5.265-5.297-5.793-5.231.103-.61.298-1.145.6-1.553.008 0 2.749.285 7.171 5.442z"/><path fill="#FF8300" d="M21.822 21.311a16 16 0 0 0-3.995 4.74s-2.417-6.341-1.798-9.971c.524-.066 2.993-.08 5.793 5.231m-5.794-5.231-.102.019.1-.019z"/><path fill="#fff" d="M39.563 29.573s-2.07.135-1.811-1.56c.26-1.697 1.876-1.9 2.328-1.834.453.069 2.262.748 1.94 2.173-.323 1.424-.777 1.151-1.035 1.221-.258.067-1.422 0-1.422 0m-15.26 0s-2.067.135-1.809-1.56c.26-1.697 1.874-1.9 2.328-1.834.452.069 2.262.748 1.939 2.173-.323 1.424-.775 1.151-1.034 1.221-.26.067-1.422 0-1.422 0z"/></svg>
